packages/ffe-icons/icons/filled/md/g_mobiledata_badge.svg

<svg xmlns="http://www.w3.org/2000/svg" height="24" viewBox="0 -960 960 960" width="24"><path d="M212.309-140.001q-30.308 0-51.308-21t-21-51.308v-535.382q0-30.308 21-51.308t51.308-21h535.382q30.308 0 51.308 21t21 51.308v535.382q0 30.308-21 51.308t-51.308 21H212.309Zm189.999-150h155.384q29.923 0 51.115-21.192 21.192-21.192 21.192-51.115v-111.538q0-15.461-10.346-25.807-10.346-10.346-25.807-10.346h-66.153q-12.769 0-21.384 8.615T497.694-480q0 12.769 8.615 21.384t21.384 8.615h42.308v87.693q0 5.385-3.462 8.847-3.462 3.462-8.847 3.462H402.308q-5.385 0-8.847-3.462-3.462-3.462-3.462-8.847v-235.384q0-5.385 3.462-8.847 3.462-3.462 8.847-3.462h227.691q-3.077-25.692-22.923-42.845-19.846-17.153-46.307-17.153H402.308q-29.923 0-51.115 21.192-21.192 21.192-21.192 51.115v235.384q0 29.923 21.192 51.115 21.192 21.192 51.115 21.192Z"/></svg>

<svg xmlns="http://www.w3.org/2000/svg" height="24" viewBox="0 -960 960 960" width="24"><path d="M212.31-140Q182-140 161-161q-21-21-21-51.31v-535.38Q140-778 161-799q21-21 51.31-21h535.38Q778-820 799-799q21 21 21 51.31v535.38Q820-182 799-161q-21 21-51.31 21H212.31Zm190-150h155.38q29.92 0 51.12-21.19Q630-332.39 630-362.31v-111.54q0-15.46-10.35-25.8Q609.31-510 593.85-510h-66.16q-12.77 0-21.38 8.62-8.62 8.61-8.62 21.38t8.62 21.38q8.61 8.62 21.38 8.62H570v87.69q0 5.39-3.46 8.85t-8.85 3.46H402.31q-5.39 0-8.85-3.46t-3.46-8.85v-235.38q0-5.39 3.46-8.85t8.85-3.46H630q-3.08-25.69-22.92-42.85Q587.23-670 560.77-670H402.31q-29.92 0-51.12 21.19Q330-627.61 330-597.69v235.38q0 29.92 21.19 51.12Q372.39-290 402.31-290Z"/></svg>
